X: 12185
T: Eynhallow Soond
R: reel
M: 4/4
K: Eminor
deeB Bgfd|ABdA BdAB|deeB Bgfe|fadb fee2:|
ABe2 efed|BABd BAFD|EBed efed|BABd e3f|
gbfa egfe|fedf edBG|deeB Bgfe|fadb fee2:|

